X: 1188
T: Mazurka de Carolina
B: ralph
B: to learn
M:3/4
L:1/8
Q: 1/4=175
K:G % 1 sharps
V:1 
z4 GB| \
d2d ded| \
B2G2GB|
d2d ded| \
c2A2Ac| \
f2f gfe| \
d2d efg|
fed cBA| \
B2G2GB| \
d2d ded| \
B2G2GB|
d2d ded| \
c2A2Ac| \
f2f gfe| \
d2d efg|
fed cBA| \
G3 GAG| \
FAd2d2| \
GBd2d2|
FAd2e2| \
e2d2BG| \
FAd2d2| \
GBd2d2|
^cde2A2| \
d4GB| \
d2d ded| \
B2G2GB|
d2d ded| \
=c2A2Ac| \
f2f gfe| \
d2d efg|
fed cBA| \
G4
V:2 
z4 G2| \
B2B BcB| \
G2D2G2|
B2B BcB| \
F4FA| \
d2d edc| \
A2A cd2|
dcA EDF| \
G4G2| \
B2B BcB| \
G2D2G2|
B2B BcB| \
F4FA| \
d2d edc| \
A2A cd2|
dcA EDF| \
G4D2| \
F2A2A2| \
G2B2B2|
F2A2c2| \
c2B2G2| \
F2A2A2| \
G2B2B2|
A2A2E2| \
F4G2| \
B2B BcB| \
G2D2G2|
B2B BcB| \
F4FA| \
d2d edc| \
A2A c
d2|
dcA EDF| \
G4
% abcbook-tune_id 634540443bb193c10c32dbd8
% abcbook-link-0 https://www.youtube.com/watch?v=T8W6PLBFL2k
% abcbook-link-title-0 La Mazurca Di Carolina (Mazurka)

% abcbook-boost 0
% abcbook-tablature 
% abcbook-transpose 
% abcbook-lastupdated 1666789293038
% abcbook-soundfonts 
% abcbook-repeats 1
% (c) SSF February 2006
% Transcribed by D. De Santi, 95
% \Arranged T Barker, 06
%  <A name="D1X37">
% Titles One title
% Transcriptions Only 1 transcription
% Movement Has some stepwise movement
% Mode major
% Key G
% Time_signature 3/4
% Has_accompaniment_chords Has chords

